dist/assets/img/services/services-phone.svg

<svg width="52" height="92" viewBox="0 0 52 92" fill="none" xmlns="http://www.w3.org/2000/svg">
<path d="M43.6372 1H8.39045C4.30882 1 1 4.30882 1 8.39045V83.432C1 87.5136 4.30882 90.8224 8.39045 90.8224H43.6372C47.7189 90.8224 51.0277 87.5136 51.0277 83.432V8.39045C51.0277 4.30882 47.7189 1 43.6372 1Z" stroke="#14161D"/>
<path fill-rule="evenodd" clip-rule="evenodd" d="M15 39.9444C15 39.4228 15.4477 39 16 39H46C46.5523 39 47 39.4228 47 39.9444C47 40.466 46.5523 40.8889 46 40.8889H16C15.4477 40.8889 15 40.466 15 39.9444ZM17 43.7222C17 43.2006 17.4477 42.7778 18 42.7778H34C34.5523 42.7778 35 43.2006 35 43.7222C35 44.2438 34.5523 44.6667 34 44.6667H18C17.4477 44.6667 17 44.2438 17 43.7222ZM16 46.5556C15.4477 46.5556 15 46.9784 15 47.5C15 48.0216 15.4477 48.4444 16 48.4444H44C44.5523 48.4444 45 48.0216 45 47.5C45 46.9784 44.5523 46.5556 44 46.5556H16ZM17 51.2778C17 50.7562 17.4477 50.3333 18 50.3333H30C30.5523 50.3333 31 50.7562 31 51.2778C31 51.7994 30.5523 52.2222 30 52.2222H18C17.4477 52.2222 17 51.7994 17 51.2778ZM18 54.1111C17.4477 54.1111 17 54.534 17 55.0556C17 55.5772 17.4477 56 18 56H30C30.5523 56 31 55.5772 31 55.0556C31 54.534 30.5523 54.1111 30 54.1111H18Z" fill="#E4E8F4"/>
<path d="M6.87236 47.4278C6.53778 47.4278 6.26733 47.6832 6.26733 47.9992C6.26733 48.3152 6.53778 48.5706 6.87236 48.5706C7.576 48.5706 8.13081 48.7849 8.56823 49.2255C9.84543 50.514 9.67363 53.218 9.67063 53.2848V60.5704C9.67063 62.4052 10.2103 63.8206 11.2733 64.7737C12.5493 65.9189 14.1599 66 14.5882 66C14.6475 66 14.6838 65.9977 14.6935 65.9977C15.0275 65.9823 15.284 65.7132 15.2665 65.3972C15.2489 65.0806 14.9591 64.8372 14.6306 64.856C14.6148 64.8629 13.1876 64.9155 12.1064 63.9452C11.292 63.2155 10.8806 62.0795 10.8806 60.5704L10.8794 53.3231C10.8891 53.1922 11.09 50.098 9.45403 48.4472C9.28523 48.2769 9.10253 48.1266 8.90883 47.9998C9.10253 47.8718 9.28523 47.7232 9.45403 47.5518C11.09 45.8987 10.8891 42.8061 10.8806 42.7141V35.4286C10.8806 33.9252 11.2896 32.7932 12.0967 32.0623C13.1658 31.0944 14.6124 31.1401 14.6336 31.1424C14.967 31.1618 15.2489 30.9161 15.2665 30.6012C15.2828 30.2858 15.0269 30.0178 14.6935 30.0007C14.61 30.0018 12.7272 29.9207 11.2745 31.2252C10.2103 32.1795 9.67183 33.5943 9.67183 35.4286L9.67303 42.7524C9.72743 43.505 9.63433 45.6958 8.57123 46.7706C8.13202 47.2129 7.57721 47.4278 6.87236 47.4278Z" fill="#3980FF"/>
<path d="M12.4103 1H39.6176C39.3417 2.92845 37.6831 4.41098 35.6784 4.41098H16.3495C14.3448 4.41098 12.6862 2.92845 12.4103 1Z" fill="#14161D" stroke="#14161D"/>
</svg>

<svg width="52" height="92" fill="none" xmlns="http://www.w3.org/2000/svg"><path d="M43.637 1H8.39A7.39 7.39 0 001 8.39v75.042a7.39 7.39 0 007.39 7.39h35.247a7.39 7.39 0 007.39-7.39V8.39A7.39 7.39 0 0043.638 1z" stroke="#14161D"/><path fill-rule="evenodd" clip-rule="evenodd" d="M15 39.944c0-.521.448-.944 1-.944h30c.552 0 1 .423 1 .944 0 .522-.448.945-1 .945H16c-.552 0-1-.423-1-.945zm2 3.778c0-.521.448-.944 1-.944h16c.552 0 1 .423 1 .944 0 .522-.448.945-1 .945H18c-.552 0-1-.423-1-.945zm-1 2.834c-.552 0-1 .422-1 .944s.448.944 1 .944h28c.552 0 1-.422 1-.944s-.448-.944-1-.944H16zm1 4.722c0-.522.448-.945 1-.945h12c.552 0 1 .423 1 .945 0 .521-.448.944-1 .944H18c-.552 0-1-.423-1-.944zm1 2.833c-.552 0-1 .423-1 .945 0 .521.448.944 1 .944h12c.552 0 1-.423 1-.944 0-.522-.448-.945-1-.945H18z" fill="#E4E8F4"/><path d="M6.872 47.428c-.334 0-.605.255-.605.571 0 .316.27.572.605.572.704 0 1.259.214 1.696.654 1.277 1.289 1.106 3.993 1.103 4.06v7.285c0 1.835.54 3.25 1.602 4.204C12.55 65.919 14.16 66 14.588 66c.06 0 .096-.002.106-.002.333-.016.59-.285.572-.6-.017-.317-.307-.56-.635-.542-.016.007-1.443.06-2.525-.91-.814-.73-1.225-1.866-1.225-3.376l-.002-7.247c.01-.13.211-3.225-1.425-4.876A3.364 3.364 0 008.909 48c.194-.128.376-.277.545-.448 1.636-1.653 1.435-4.746 1.427-4.838V35.43c0-1.504.409-2.636 1.216-3.367 1.069-.968 2.515-.922 2.537-.92a.59.59 0 00.633-.54c.016-.316-.24-.584-.573-.601-.084 0-1.967-.08-3.42 1.224-1.064.954-1.602 2.37-1.602 4.204l.001 7.323c.054.753-.039 2.944-1.102 4.019-.439.442-.994.657-1.699.657z" fill="#3980FF"/><path d="M12.41 1h27.208a3.98 3.98 0 01-3.94 3.411H16.35A3.98 3.98 0 0112.41 1z" fill="#14161D" stroke="#14161D"/></svg>
